X: 7747
T: Colorado
R: reel
M: 4/4
K: Gmajor
ge|:"G"dB{c}BA B2 Bd|"Em"efge dBAB|"G"dB{c}BA B2 {c}BA|"Em"GEDE B,DGB|"G"dB{c}BA ~B3d|
"Em"efge dega|1 "G" b2 b2 "D"a2 ba|"Em"geed "C"e2ge:|2 "G"b2a2 "Em"g2e2|"Bm"d4"D"d2d^c||[K:Bm]
|:"Bm"Bffe df fe|"Bm" Bdfa "A"gefd|"Bm"Bf{g}fe fgaf|"Em"efed "F#m"cABc|
"Bm"Bffe dffe|"Bm"defa b3a|"Em"gefd "F#m"ecdB|1 "F#m"Agfe "Bm" d2 dc:|2 "A"Agfe "(Bm last time)""D" d2 ge||

